X:1
T:I Am Sheltered in Thee
T:I Am Sheltered in Thee
T:Frank Marion Davis
T:Frank Marion Davis, 1886
T:Public Domain Courtesy of the Cyber Hymnal™
C:Frank Marion Davis
Z:Public Domain
Z:Courtesy of the Cyber Hymnal™
%%score ( 1 2 ) 3
L:1/8
Q:1/4=110
M:3/4
K:D
V:1 treble 
V:2 treble 
V:3 bass 
V:1
 D>[DE] | [DF]2 [DE]2 D2 | [FA]4 [FA]>[FA] | [GB]2 [Bd]2 [GB]2 | [FA]4 D>[DE] | [DF]2 [DF]2 [EG]2 | %6
w: 1.~I am|safe in the|Rock that is|high- er than|I; This my|re- fuge thro’|
w: 2.~I am|safe in the|Cleft that was|riv- en for|me; From the|power of the|
w: 3.~I am|safe in the|Rock, let what-|ev- er be-|tide; Death and|hell have no|
 [FA]2 [FA]2 [DF]2 | [CE]4 D>[DE] | [DF]2 [DE]2 D2 | [FA]4 [FA]>[FA] | [GB]2 [Bd]2 [GB]2 | %11
w: storms e’er shall|be; Tho’ my|frail bark is|tossed on the|bil- lows’ mad|
w: tempt- er I’m|free; Tho’ my|path- way be|dark, and the|storms sweep the|
w: ter- ror for|me; I can|walk with- out|fear through the|sha- dow- y|
 [FA]4 D>[DE] | [DF]2 [DF]2 [DG]2 | [DF]2 D2 [CE]2 | D4 z2 ||"^Refrain" [DF]2 [GB]2 [FA]2 | [EG]6 | %17
w: foam, Yet I’m|shel- tered for-|ev- er in|Thee.|||
w: sky, Yet se-|cure- ly I’m|shel- tered in|Thee.|Shel- tered in|Thee,|
w: vale, For se-|cure- ly I’m|shel- tered in|Thee.|||
 [CE]2 [FA]2 [EG]2 | [DF]4 [FA]>[FA] | [Fd]2 [Ac]2 [GB]2 | [FA]2 [DF]2 D[DG] | [DF]2 D2 [CE]2 | %22
w: |||||
w: shel- tered in|Thee, O Thou|blest Rock of|Ag- es, I am|shel- tered in|
w: |||||
 D4 |] %23
w: |
w: Thee.|
w: |
V:2
 D3/2 x/ | x4 D2 | x6 | x6 | x4 D3/2 x/ | x6 | x6 | x4 D3/2 x/ | x6 | x6 | x6 | x4 D3/2 x/ | x6 | %13
 x2 D2 x2 | D4 x2 || x6 | x6 | x6 | x6 | x6 | x4 D x | x2 D2 x2 | D4 |] %23
V:3
 [D,F,]>[D,G,] | [D,A,]2 [D,G,]2 [D,F,]2 | [D,D]4 [D,D]>[D,D] | [G,D]2 [G,D]2 [G,D]2 | %4
w: ~ ~|~ ~ ~|~ ~ ~|~ ~ ~|
 [D,D]4 [D,F,]>[D,G,] | [D,A,]2 [D,A,]2 [D,A,]2 | [D,D]2 [D,D]2 [D,A,]2 | [A,,A,]4 [D,F,]>[D,G,] | %8
w: ~ ~ ~|~ ~ ~|~ ~ ~|~ ~ ~|
 [D,A,]2 [D,G,]2 [D,F,]2 | [D,D]4 [D,D]>[D,D] | [G,D]2 [G,D]2 [G,D]2 | [D,D]4 [D,F,]>[D,G,] | %12
w: ~ ~ ~|~ ~ ~|~ ~ ~|~ ~ ~|
 [D,A,]2 [D,A,]2 [G,,B,]2 | [A,,B,]2 [A,,F,]2 [A,,G,]2 | [D,F,]4 z2 || z6 | %16
w: ~ ~ ~|~ ~ ~|~||
 [A,,C]2 [A,,C]2 [A,,C]2 | [A,,A,]4 [C,A,]2 | [D,A,]4 [D,D]>[D,D] | [D,A,]2 [D,D]2 [D,D]2 | %20
w: Shel- tered in|Thee, in|Thee * *||
 [D,D]2 [D,A,]2 [G,,B,][G,,B,] | [A,,A,]2 [A,,F,]2 [A,,G,]2 | [D,F,]4 |] %23
w: |||

